icons/modern/japanese-vacancy-button.svg

<svg width="32" height="32" viewBox="0 0 32 32" fill="none" xmlns="http://www.w3.org/2000/svg">
<g filter="url(#filter0_ii_18590_2683)">
<rect x="1.72339" y="2.4375" width="27.875" height="27.875" rx="3.6" fill="url(#paint0_linear_18590_2683)"/>
<rect x="1.72339" y="2.4375" width="27.875" height="27.875" rx="3.6" fill="url(#paint1_radial_18590_2683)"/>
</g>
<g filter="url(#filter1_f_18590_2683)">
<path d="M27.9109 4.9375V27.8125" stroke="url(#paint2_linear_18590_2683)" stroke-width="1.5" stroke-linecap="round"/>
</g>
<g filter="url(#filter2_f_18590_2683)">
<path d="M5.18726 4.25H26.9685" stroke="url(#paint3_linear_18590_2683)" stroke-width="1.5" stroke-linecap="round"/>
</g>
<g filter="url(#filter3_f_18590_2683)">
<path d="M14.7256 6.83179C14.7256 6.2795 15.1733 5.83179 15.7256 5.83179C16.2779 5.83179 16.7256 6.2795 16.7256 6.83179V7.70679C16.7256 7.77582 16.7816 7.83179 16.8506 7.83179H25.7256C26.2779 7.83179 26.7256 8.2795 26.7256 8.83179V11.8318C26.7256 12.3841 26.2779 12.8318 25.7256 12.8318C25.1733 12.8318 24.7256 12.3841 24.7256 11.8318V9.95679C24.7256 9.88775 24.6696 9.83179 24.6006 9.83179H18.8506C18.7816 9.83179 18.7256 9.88775 18.7256 9.95679V14.7068C18.7256 14.7758 18.7816 14.8318 18.8506 14.8318H23.2596C23.2927 14.8318 23.3245 14.8186 23.348 14.7952L24.0185 14.1247C24.409 13.7342 25.0422 13.7342 25.4327 14.1247C25.8232 14.5152 25.8232 15.1484 25.4327 15.5389L24.7256 16.246C24.3505 16.6211 23.8418 16.8318 23.3114 16.8318H18.7256C17.621 16.8318 16.7256 15.9364 16.7256 14.8318V9.95679C16.7256 9.88775 16.6696 9.83179 16.6006 9.83179H14.8506C14.7816 9.83179 14.7258 9.88621 14.724 9.95522C14.6643 12.2382 12.9539 16.5823 7.02328 18.2867C6.92924 18.316 6.82926 18.3318 6.72559 18.3318C6.1733 18.3318 5.72559 17.8841 5.72559 17.3318C5.72559 16.8673 6.04221 16.4768 6.47138 16.3644C11.4519 14.9328 12.659 11.4503 12.7229 9.95618C12.7258 9.8872 12.6696 9.83179 12.6006 9.83179H7.85059C7.78155 9.83179 7.72559 9.88775 7.72559 9.95679V11.8318C7.72559 12.3841 7.27787 12.8318 6.72559 12.8318C6.1733 12.8318 5.72559 12.3841 5.72559 11.8318V8.83179C5.72559 8.2795 6.1733 7.83179 6.72559 7.83179H14.6006C14.6696 7.83179 14.7256 7.77582 14.7256 7.70679V6.83179Z" fill="#579FFF"/>
<path d="M8.72559 18.8318C8.1733 18.8318 7.72559 19.2795 7.72559 19.8318C7.72559 20.3841 8.1733 20.8318 8.72559 20.8318H14.6006C14.6696 20.8318 14.7256 20.8878 14.7256 20.9568V23.7068C14.7256 23.7758 14.6696 23.8318 14.6006 23.8318H6.72559C6.1733 23.8318 5.72559 24.2795 5.72559 24.8318C5.72559 25.3841 6.1733 25.8318 6.72559 25.8318H24.7256C25.2779 25.8318 25.7256 25.3841 25.7256 24.8318C25.7256 24.2795 25.2779 23.8318 24.7256 23.8318H16.8506C16.7816 23.8318 16.7256 23.7758 16.7256 23.7068V20.9568C16.7256 20.8878 16.7816 20.8318 16.8506 20.8318H22.7256C23.2779 20.8318 23.7256 20.3841 23.7256 19.8318C23.7256 19.2795 23.2779 18.8318 22.7256 18.8318H8.72559Z" fill="#579FFF"/>
</g>
<g filter="url(#filter4_ii_18590_2683)">
<path d="M14.7256 6.83179C14.7256 6.2795 15.1733 5.83179 15.7256 5.83179C16.2779 5.83179 16.7256 6.2795 16.7256 6.83179V7.70679C16.7256 7.77582 16.7816 7.83179 16.8506 7.83179H25.7256C26.2779 7.83179 26.7256 8.2795 26.7256 8.83179V11.8318C26.7256 12.3841 26.2779 12.8318 25.7256 12.8318C25.1733 12.8318 24.7256 12.3841 24.7256 11.8318V9.95679C24.7256 9.88775 24.6696 9.83179 24.6006 9.83179H18.8506C18.7816 9.83179 18.7256 9.88775 18.7256 9.95679V14.7068C18.7256 14.7758 18.7816 14.8318 18.8506 14.8318H23.2596C23.2927 14.8318 23.3245 14.8186 23.348 14.7952L24.0185 14.1247C24.409 13.7342 25.0422 13.7342 25.4327 14.1247C25.8232 14.5152 25.8232 15.1484 25.4327 15.5389L24.7256 16.246C24.3505 16.6211 23.8418 16.8318 23.3114 16.8318H18.7256C17.621 16.8318 16.7256 15.9364 16.7256 14.8318V9.95679C16.7256 9.88775 16.6696 9.83179 16.6006 9.83179H14.8506C14.7816 9.83179 14.7258 9.88621 14.724 9.95522C14.6643 12.2382 12.9539 16.5823 7.02328 18.2867C6.92924 18.316 6.82926 18.3318 6.72559 18.3318C6.1733 18.3318 5.72559 17.8841 5.72559 17.3318C5.72559 16.8673 6.04221 16.4768 6.47138 16.3644C11.4519 14.9328 12.659 11.4503 12.7229 9.95618C12.7258 9.8872 12.6696 9.83179 12.6006 9.83179H7.85059C7.78155 9.83179 7.72559 9.88775 7.72559 9.95679V11.8318C7.72559 12.3841 7.27787 12.8318 6.72559 12.8318C6.1733 12.8318 5.72559 12.3841 5.72559 11.8318V8.83179C5.72559 8.2795 6.1733 7.83179 6.72559 7.83179H14.6006C14.6696 7.83179 14.7256 7.77582 14.7256 7.70679V6.83179Z" fill="#FCF2FF"/>
<path d="M8.72559 18.8318C8.1733 18.8318 7.72559 19.2795 7.72559 19.8318C7.72559 20.3841 8.1733 20.8318 8.72559 20.8318H14.6006C14.6696 20.8318 14.7256 20.8878 14.7256 20.9568V23.7068C14.7256 23.7758 14.6696 23.8318 14.6006 23.8318H6.72559C6.1733 23.8318 5.72559 24.2795 5.72559 24.8318C5.72559 25.3841 6.1733 25.8318 6.72559 25.8318H24.7256C25.2779 25.8318 25.7256 25.3841 25.7256 24.8318C25.7256 24.2795 25.2779 23.8318 24.7256 23.8318H16.8506C16.7816 23.8318 16.7256 23.7758 16.7256 23.7068V20.9568C16.7256 20.8878 16.7816 20.8318 16.8506 20.8318H22.7256C23.2779 20.8318 23.7256 20.3841 23.7256 19.8318C23.7256 19.2795 23.2779 18.8318 22.7256 18.8318H8.72559Z" fill="#FCF2FF"/>
</g>
<defs>
<filter id="filter0_ii_18590_2683" x="1.72339" y="1.4375" width="28.875" height="28.875" filterUnits="userSpaceOnUse" color-interpolation-filters="sRGB">
<feFlood flood-opacity="0" result="BackgroundImageFix"/>
<feBlend mode="normal" in="SourceGraphic" in2="BackgroundImageFix" result="shape"/>
<feColorMatrix in="SourceAlpha" type="matrix" values="0 0 0 0 0 0 0 0 0 0 0 0 0 0 0 0 0 0 127 0" result="hardAlpha"/>
<feOffset dx="1" dy="-1"/>
<feGaussianBlur stdDeviation="1.5"/>
<feComposite in2="hardAlpha" operator="arithmetic" k2="-1" k3="1"/>
<feColorMatrix type="matrix" values="0 0 0 0 0.188235 0 0 0 0 0.470588 0 0 0 0 0.843137 0 0 0 1 0"/>
<feBlend mode="normal" in2="shape" result="effect1_innerShadow_18590_2683"/>
<feColorMatrix in="SourceAlpha" type="matrix" values="0 0 0 0 0 0 0 0 0 0 0 0 0 0 0 0 0 0 127 0" result="hardAlpha"/>
<feOffset dy="-1"/>
<feGaussianBlur stdDeviation="1.5"/>
<feComposite in2="hardAlpha" operator="arithmetic" k2="-1" k3="1"/>
<feColorMatrix type="matrix" values="0 0 0 0 0.27451 0 0 0 0 0.34902 0 0 0 0 0.8 0 0 0 1 0"/>
<feBlend mode="normal" in2="effect1_innerShadow_18590_2683" result="effect2_innerShadow_18590_2683"/>
</filter>
<filter id="filter1_f_18590_2683" x="25.1609" y="2.1875" width="5.5" height="28.375" filterUnits="userSpaceOnUse" color-interpolation-filters="sRGB">
<feFlood flood-opacity="0" result="BackgroundImageFix"/>
<feBlend mode="normal" in="SourceGraphic" in2="BackgroundImageFix" result="shape"/>
<feGaussianBlur stdDeviation="1" result="effect1_foregroundBlur_18590_2683"/>
</filter>
<filter id="filter2_f_18590_2683" x="2.43726" y="1.5" width="27.2812" height="5.5" filterUnits="userSpaceOnUse" color-interpolation-filters="sRGB">
<feFlood flood-opacity="0" result="BackgroundImageFix"/>
<feBlend mode="normal" in="SourceGraphic" in2="BackgroundImageFix" result="shape"/>
<feGaussianBlur stdDeviation="1" result="effect1_foregroundBlur_18590_2683"/>
</filter>
<filter id="filter3_f_18590_2683" x="4.72559" y="4.83179" width="23" height="22" filterUnits="userSpaceOnUse" color-interpolation-filters="sRGB">
<feFlood flood-opacity="0" result="BackgroundImageFix"/>
<feBlend mode="normal" in="SourceGraphic" in2="BackgroundImageFix" result="shape"/>
<feGaussianBlur stdDeviation="0.5" result="effect1_foregroundBlur_18590_2683"/>
</filter>
<filter id="filter4_ii_18590_2683" x="4.72559" y="5.43179" width="22.4" height="21.4" filterUnits="userSpaceOnUse" color-interpolation-filters="sRGB">
<feFlood flood-opacity="0" result="BackgroundImageFix"/>
<feBlend mode="normal" in="SourceGraphic" in2="BackgroundImageFix" result="shape"/>
<feColorMatrix in="SourceAlpha" type="matrix" values="0 0 0 0 0 0 0 0 0 0 0 0 0 0 0 0 0 0 127 0" result="hardAlpha"/>
<feOffset dx="-1" dy="1"/>
<feGaussianBlur stdDeviation="1"/>
<feComposite in2="hardAlpha" operator="arithmetic" k2="-1" k3="1"/>
<feColorMatrix type="matrix" values="0 0 0 0 0.866667 0 0 0 0 0.819608 0 0 0 0 0.941176 0 0 0 1 0"/>
<feBlend mode="normal" in2="shape" result="effect1_innerShadow_18590_2683"/>
<feColorMatrix in="SourceAlpha" type="matrix" values="0 0 0 0 0 0 0 0 0 0 0 0 0 0 0 0 0 0 127 0" result="hardAlpha"/>
<feOffset dx="0.4" dy="-0.4"/>
<feGaussianBlur stdDeviation="0.5"/>
<feComposite in2="hardAlpha" operator="arithmetic" k2="-1" k3="1"/>
<feColorMatrix type="matrix" values="0 0 0 0 1 0 0 0 0 0.988235 0 0 0 0 1 0 0 0 1 0"/>
<feBlend mode="normal" in2="effect1_innerShadow_18590_2683" result="effect2_innerShadow_18590_2683"/>
</filter>
<linearGradient id="paint0_linear_18590_2683" x1="15.6609" y1="6.01201" x2="15.6609" y2="39.2647" gradientUnits="userSpaceOnUse">
<stop stop-color="#5CB7FF"/>
<stop offset="1" stop-color="#4878DD"/>
</linearGradient>
<radialGradient id="paint1_radial_18590_2683" cx="0" cy="0" r="1" gradientUnits="userSpaceOnUse" gradientTransform="translate(27.3796 4.53125) rotate(136.771) scale(2.14444 2.50466)">
<stop stop-color="#7BD7FF"/>
<stop offset="1" stop-color="#7BD7FF" stop-opacity="0"/>
</radialGradient>
<linearGradient id="paint2_linear_18590_2683" x1="28.4109" y1="4.9375" x2="28.4109" y2="27.8125" gradientUnits="userSpaceOnUse">
<stop stop-color="#7FD9FF"/>
<stop offset="1" stop-color="#639DF4"/>
</linearGradient>
<linearGradient id="paint3_linear_18590_2683" x1="28.1248" y1="4.50002" x2="2.59351" y2="4.50002" gradientUnits="userSpaceOnUse">
<stop stop-color="#7DD8FF"/>
<stop offset="1" stop-color="#5DB6FF"/>
</linearGradient>
</defs>
</svg>

<svg width="32" height="32" fill="none" xmlns="http://www.w3.org/2000/svg"><g filter="url(#a)"><rect x="1.723" y="2.438" width="27.875" height="27.875" rx="3.6" fill="url(#b)"/><rect x="1.723" y="2.438" width="27.875" height="27.875" rx="3.6" fill="url(#c)"/></g><g filter="url(#d)"><path d="M27.91 4.938v22.875" stroke="url(#e)" stroke-width="1.5" stroke-linecap="round"/></g><g filter="url(#f)"><path d="M5.187 4.25h21.781" stroke="url(#g)" stroke-width="1.5" stroke-linecap="round"/></g><g filter="url(#h)" fill="#579FFF"><path d="M14.726 6.832a1 1 0 1 1 2 0v.875c0 .069.056.125.125.125h8.875a1 1 0 0 1 1 1v3a1 1 0 1 1-2 0V9.957a.125.125 0 0 0-.125-.125h-5.75a.125.125 0 0 0-.125.125v4.75c0 .069.056.125.125.125h4.409a.125.125 0 0 0 .088-.037l.67-.67a1 1 0 0 1 1.415 1.414l-.707.707a2 2 0 0 1-1.415.586h-4.585a2 2 0 0 1-2-2V9.957a.125.125 0 0 0-.125-.125h-1.75a.126.126 0 0 0-.127.123c-.06 2.283-1.77 6.627-7.7 8.332a1 1 0 1 1-.553-1.923c4.98-1.431 6.188-4.914 6.252-6.408a.12.12 0 0 0-.122-.124H7.85a.125.125 0 0 0-.125.125v1.875a1 1 0 1 1-2 0v-3a1 1 0 0 1 1-1H14.6a.125.125 0 0 0 .125-.125v-.875ZM8.726 18.832a1 1 0 1 0 0 2H14.6c.069 0 .125.056.125.125v2.75a.125.125 0 0 1-.125.125H6.726a1 1 0 1 0 0 2h18a1 1 0 1 0 0-2H16.85a.125.125 0 0 1-.125-.125v-2.75c0-.07.056-.125.125-.125h5.875a1 1 0 1 0 0-2h-14Z"/></g><g filter="url(#i)" fill="#FCF2FF"><path d="M14.726 6.832a1 1 0 1 1 2 0v.875c0 .069.056.125.125.125h8.875a1 1 0 0 1 1 1v3a1 1 0 1 1-2 0V9.957a.125.125 0 0 0-.125-.125h-5.75a.125.125 0 0 0-.125.125v4.75c0 .069.056.125.125.125h4.409a.125.125 0 0 0 .088-.037l.67-.67a1 1 0 0 1 1.415 1.414l-.707.707a2 2 0 0 1-1.415.586h-4.585a2 2 0 0 1-2-2V9.957a.125.125 0 0 0-.125-.125h-1.75a.126.126 0 0 0-.127.123c-.06 2.283-1.77 6.627-7.7 8.332a1 1 0 1 1-.553-1.923c4.98-1.431 6.188-4.914 6.252-6.408a.12.12 0 0 0-.122-.124H7.85a.125.125 0 0 0-.125.125v1.875a1 1 0 1 1-2 0v-3a1 1 0 0 1 1-1H14.6a.125.125 0 0 0 .125-.125v-.875ZM8.726 18.832a1 1 0 1 0 0 2H14.6c.069 0 .125.056.125.125v2.75a.125.125 0 0 1-.125.125H6.726a1 1 0 1 0 0 2h18a1 1 0 1 0 0-2H16.85a.125.125 0 0 1-.125-.125v-2.75c0-.07.056-.125.125-.125h5.875a1 1 0 1 0 0-2h-14Z"/></g><defs><filter id="a" x="1.723" y="1.438" width="28.875" height="28.875" filterUnits="userSpaceOnUse" color-interpolation-filters="sRGB"><feFlood flood-opacity="0" result="BackgroundImageFix"/><feBlend in="SourceGraphic" in2="BackgroundImageFix" result="shape"/><feColorMatrix in="SourceAlpha" values="0 0 0 0 0 0 0 0 0 0 0 0 0 0 0 0 0 0 127 0" result="hardAlpha"/><feOffset dx="1" dy="-1"/><feGaussianBlur stdDeviation="1.5"/><feComposite in2="hardAlpha" operator="arithmetic" k2="-1" k3="1"/><feColorMatrix values="0 0 0 0 0.188235 0 0 0 0 0.470588 0 0 0 0 0.843137 0 0 0 1 0"/><feBlend in2="shape" result="effect1_innerShadow_18590_2683"/><feColorMatrix in="SourceAlpha" values="0 0 0 0 0 0 0 0 0 0 0 0 0 0 0 0 0 0 127 0" result="hardAlpha"/><feOffset dy="-1"/><feGaussianBlur stdDeviation="1.5"/><feComposite in2="hardAlpha" operator="arithmetic" k2="-1" k3="1"/><feColorMatrix values="0 0 0 0 0.27451 0 0 0 0 0.34902 0 0 0 0 0.8 0 0 0 1 0"/><feBlend in2="effect1_innerShadow_18590_2683" result="effect2_innerShadow_18590_2683"/></filter><filter id="d" x="25.161" y="2.188" width="5.5" height="28.375" filterUnits="userSpaceOnUse" color-interpolation-filters="sRGB"><feFlood flood-opacity="0" result="BackgroundImageFix"/><feBlend in="SourceGraphic" in2="BackgroundImageFix" result="shape"/><feGaussianBlur stdDeviation="1" result="effect1_foregroundBlur_18590_2683"/></filter><filter id="f" x="2.437" y="1.5" width="27.281" height="5.5" filterUnits="userSpaceOnUse" color-interpolation-filters="sRGB"><feFlood flood-opacity="0" result="BackgroundImageFix"/><feBlend in="SourceGraphic" in2="BackgroundImageFix" result="shape"/><feGaussianBlur stdDeviation="1" result="effect1_foregroundBlur_18590_2683"/></filter><filter id="h" x="4.726" y="4.832" width="23" height="22" filterUnits="userSpaceOnUse" color-interpolation-filters="sRGB"><feFlood flood-opacity="0" result="BackgroundImageFix"/><feBlend in="SourceGraphic" in2="BackgroundImageFix" result="shape"/><feGaussianBlur stdDeviation=".5" result="effect1_foregroundBlur_18590_2683"/></filter><filter id="i" x="4.726" y="5.432" width="22.4" height="21.4" filterUnits="userSpaceOnUse" color-interpolation-filters="sRGB"><feFlood flood-opacity="0" result="BackgroundImageFix"/><feBlend in="SourceGraphic" in2="BackgroundImageFix" result="shape"/><feColorMatrix in="SourceAlpha" values="0 0 0 0 0 0 0 0 0 0 0 0 0 0 0 0 0 0 127 0" result="hardAlpha"/><feOffset dx="-1" dy="1"/><feGaussianBlur stdDeviation="1"/><feComposite in2="hardAlpha" operator="arithmetic" k2="-1" k3="1"/><feColorMatrix values="0 0 0 0 0.866667 0 0 0 0 0.819608 0 0 0 0 0.941176 0 0 0 1 0"/><feBlend in2="shape" result="effect1_innerShadow_18590_2683"/><feColorMatrix in="SourceAlpha" values="0 0 0 0 0 0 0 0 0 0 0 0 0 0 0 0 0 0 127 0" result="hardAlpha"/><feOffset dx=".4" dy="-.4"/><feGaussianBlur stdDeviation=".5"/><feComposite in2="hardAlpha" operator="arithmetic" k2="-1" k3="1"/><feColorMatrix values="0 0 0 0 1 0 0 0 0 0.988235 0 0 0 0 1 0 0 0 1 0"/><feBlend in2="effect1_innerShadow_18590_2683" result="effect2_innerShadow_18590_2683"/></filter><linearGradient id="b" x1="15.661" y1="6.012" x2="15.661" y2="39.265" gradientUnits="userSpaceOnUse"><stop stop-color="#5CB7FF"/><stop offset="1" stop-color="#4878DD"/></linearGradient><linearGradient id="e" x1="28.411" y1="4.938" x2="28.411" y2="27.813" gradientUnits="userSpaceOnUse"><stop stop-color="#7FD9FF"/><stop offset="1" stop-color="#639DF4"/></linearGradient><linearGradient id="g" x1="28.125" y1="4.5" x2="2.594" y2="4.5" gradientUnits="userSpaceOnUse"><stop stop-color="#7DD8FF"/><stop offset="1" stop-color="#5DB6FF"/></linearGradient><radialGradient id="c" cx="0" cy="0" r="1" gradientUnits="userSpaceOnUse" gradientTransform="matrix(-1.56249 1.46876 -1.71548 -1.82495 27.38 4.531)"><stop stop-color="#7BD7FF"/><stop offset="1" stop-color="#7BD7FF" stop-opacity="0"/></radialGradient></defs></svg>
